Yaru++/apps/symbolic/accessories-dictionary-symbolic.svg

<svg height="16" width="16" xmlns="http://www.w3.org/2000/svg"><g fill="#808080"><path d="m4.9941406 0c-1.2582.0145-2.1788906-.03060438-2.9316406.38476562-.37637.20766001-.6732306.55938688-.8378906.99804688-.16467.43867-.2246094.9595775-.2246094 1.6171875v10c0 .65761.0598994 1.178578.2246094 1.617188.16468.43861.4615306.788523.8378906.996093.75272.41514 1.6735406.371649 2.9316406.386719h.0019532 5.0058592.003906c1.25819-.0145 2.178891.030604 2.931641-.384766.37637-.20766.673231-.559387.837891-.998046.16453-.438671.224609-.959578.224609-1.617188v-10c0-.65761-.059899-1.1785775-.224609-1.6171875-.16468-.43861-.461531-.78852375-.837891-.99609375-.75272-.41513-1.673551-.37164875-2.931641-.38671875h-.001953-5.0058591zm.0058594 1h5c1.25862.0152 2.089098.0598988 2.455078.2617188.18342.1011599.287226.2128562.384766.4726562.09741.25979.160156.673235.160156 1.265625v10c0 .59239-.062596 1.005725-.160156 1.265625-.0976.25991-.201356.371466-.384766.472656-.36596.20192-1.196558.247009-2.455078.261719h-4.9941406-.0058594c-.2934043-.003543-.4821058-.018978-.7285156-.027344v-13.9453122c.2464908-.0083516.4347703-.0239127.7285156-.0273438z"/><path d="m9.9550781 8.2636719c-.334141 0-.6272631.022892-.8808593.072266-.2359943.0472505-.4163827.0961965-.5605469.1640621l-.1699219.0800781.1640625 1.0410157.2890625-.109375c.069362-.026652.1977572-.068494.375-.1191407.13767-.039332.3980119-.068359.7539062-.068359.2308678 0 .3962768.039507.4999998.095703l.0059.00195.0059.00391c.125173.060079.204409.1320342.261719.2246094l.0039.00586.0039.00586c.0675.096426.112212.2058943.132813.3398435v.002c.02344.146007.03496.298571.03516.458985-.02883-.0052-.05288-.01323-.08398-.01758-.09905-.02127-.202466-.03353-.310547-.04101-.106761-.01422-.210179-.02149-.3125-.02149-.3190973 0-.6179549.02907-.8964846.0918-.2819329.06349-.5342272.168615-.75.316407-.2198589.14405-.3971298.334948-.5195313.564453-.1260017.236247-.1835937.511795-.1835937.814453 0 .310362.047825.587785.15625.828125l.00391.0059.00195.0039c.1116303.223374.2633379.414565.453125.566407l.00586.0039.00391.0039c.1945155.142137.4179706.245415.6640625.310547h.00195c.2485366.06396.5140664.0957.796875.0957.2145021 0 .4232661-.01136.6250001-.03125.202101-.0133.388711-.03162.556641-.05859.161039-.02578.301479-.04909.423828-.06836l.0078-.002h.0059c.126052-.02663.223463-.05096.300781-.07422l.177734-.05273v-3.339844c0-.284838-.03405-.5542329-.105468-.8046873-.0735-.2572371-.195613-.4852354-.363282-.6757812-.1704-.2001606-.393491-.3526269-.65625-.4550782h-.002c-.21264-.0900711-.485823-.1458641-.753964-.1621394zm.1933599 3.1601561c.258982 0 .456569.02039.578124.05078l.0039.002h.0059c.07096.01476.09064.02537.138672.03906v1.357422c-.08142.01203-.149313.02471-.25.03516-.17134.01202-.373683.01758-.611328.01758-.1819996 0-.342829-.01398-.482422-.04101-.000941-.000236-.00101-.0017-.00195-.002-.1281034-.0323-.2340906-.07657-.3222657-.134765-.072658-.05179-.1287242-.118688-.1757812-.210938-.038797-.08748-.064453-.207635-.064453-.367187 0-.177481.036617-.29304.089844-.369141.067321-.09618.1490709-.165349.2558594-.21875l.00391-.002.00391-.002c.1133768-.06183.2352066-.101292.3730469-.117187h.00391l.00586-.002c.1560156-.02409.3041866-.03516.4453126-.03516z"/></g></svg>

<?xml version="1.0" encoding="UTF-8" standalone="no"?>
<svg
   xmlns:dc="http://purl.org/dc/elements/1.1/"
   xmlns:cc="http://creativecommons.org/ns#"
   xmlns:rdf="http://www.w3.org/1999/02/22-rdf-syntax-ns#"
   xmlns:svg="http://www.w3.org/2000/svg"
   xmlns="http://www.w3.org/2000/svg"
   xmlns:sodipodi="http://sodipodi.sourceforge.net/DTD/sodipodi-0.dtd"
   xmlns:inkscape="http://www.inkscape.org/namespaces/inkscape"
   height="16"
   width="16"
   version="1.1"
   id="svg8"
   sodipodi:docname="accessories-dictionary-symbolic.svg"
   inkscape:version="0.92.5 (2060ec1f9f, 2020-04-08)">
  <metadata
     id="metadata14">
    <rdf:RDF>
      <cc:Work
         rdf:about="">
        <dc:format>image/svg+xml</dc:format>
        <dc:type
           rdf:resource="http://purl.org/dc/dcmitype/StillImage" />
        <dc:title />
      </cc:Work>
    </rdf:RDF>
  </metadata>
  <defs
     id="defs12" />
  <sodipodi:namedview
     pagecolor="#ffffff"
     bordercolor="#666666"
     borderopacity="1"
     objecttolerance="10"
     gridtolerance="10"
     guidetolerance="10"
     inkscape:pageopacity="0"
     inkscape:pageshadow="2"
     inkscape:window-width="1920"
     inkscape:window-height="1016"
     id="namedview10"
     showgrid="false"
     inkscape:zoom="118"
     inkscape:cx="7.3574492"
     inkscape:cy="5.552768"
     inkscape:window-x="0"
     inkscape:window-y="27"
     inkscape:window-maximized="1"
     inkscape:current-layer="svg8" />
  <g
     fill="#808080"
     transform="translate(-512.00004 -160)"
     id="g6">
    <path
       d="M 4.9941406 0 C 3.7359406 0.0145 2.81525 -0.030604375 2.0625 0.38476562 C 1.68613 0.59242563 1.3892694 0.9441525 1.2246094 1.3828125 C 1.0599394 1.8214825 1 2.34239 1 3 L 1 13 C 1 13.65761 1.0598994 14.178578 1.2246094 14.617188 C 1.3892894 15.055798 1.68614 15.405711 2.0625 15.613281 C 2.81522 16.028421 3.7360406 15.98493 4.9941406 16 L 4.9960938 16 L 10.001953 16 L 10.005859 16 C 11.264049 15.9855 12.18475 16.030604 12.9375 15.615234 C 13.31387 15.407574 13.610731 15.055847 13.775391 14.617188 C 13.939921 14.178517 14 13.65761 14 13 L 14 3 C 14 2.34239 13.940101 1.8214225 13.775391 1.3828125 C 13.610711 0.9442025 13.31386 0.59428875 12.9375 0.38671875 C 12.18478 -0.02841125 11.263949 0.01507 10.005859 0 L 10.003906 0 L 4.9980469 0 L 4.9941406 0 z M 5 1 L 10 1 C 11.25862 1.0152 12.089098 1.0598988 12.455078 1.2617188 C 12.638498 1.3628787 12.742304 1.474575 12.839844 1.734375 C 12.937254 1.994165 13 2.40761 13 3 L 13 13 C 13 13.59239 12.937404 14.005725 12.839844 14.265625 C 12.742244 14.525535 12.638488 14.637091 12.455078 14.738281 C 12.089118 14.940201 11.25852 14.98529 10 15 L 5.0058594 15 L 5 15 C 4.7065957 14.996457 4.5178942 14.981022 4.2714844 14.972656 L 4.2714844 1.0273438 C 4.5179752 1.0189922 4.7062547 1.0034311 5 1 z "
       transform="translate(512.00004,160)"
       id="path2" />
  </g>
  <path
     style="color:#000000;font-style:normal;font-variant:normal;font-weight:normal;font-stretch:normal;font-size:118.51851654px;line-height:1000%;font-family:sans-serif;font-variant-ligatures:normal;font-variant-position:normal;font-variant-caps:normal;font-variant-numeric:normal;font-variant-alternates:normal;font-feature-settings:normal;text-indent:0;text-align:start;text-decoration:none;text-decoration-line:none;text-decoration-style:solid;text-decoration-color:#000000;letter-spacing:0px;word-spacing:0px;text-transform:none;writing-mode:lr-tb;direction:ltr;text-orientation:mixed;dominant-baseline:auto;baseline-shift:baseline;text-anchor:start;white-space:normal;shape-padding:0;clip-rule:nonzero;display:inline;overflow:visible;visibility:visible;opacity:1;isolation:auto;mix-blend-mode:normal;color-interpolation:sRGB;color-interpolation-filters:linearRGB;solid-color:#000000;solid-opacity:1;vector-effect:none;fill:#808080;fill-opacity:1;fill-rule:nonzero;stroke:none;stroke-width:0.5;stroke-linecap:butt;stroke-linejoin:miter;stroke-miterlimit:4;stroke-dasharray:none;stroke-dashoffset:0;stroke-opacity:1;color-rendering:auto;image-rendering:auto;shape-rendering:auto;text-rendering:auto;enable-background:new"
     d="m 9.9550781,8.2636719 c -0.334141,0 -0.6272631,0.022892 -0.8808593,0.072266 C 8.8382245,8.3831884 8.6578361,8.4321344 8.5136719,8.5 L 8.34375,8.5800781 8.5078125,9.6210938 8.796875,9.5117188 c 0.069362,-0.026652 0.1977572,-0.068494 0.375,-0.1191407 0.13767,-0.039332 0.3980119,-0.068359 0.7539062,-0.068359 0.2308678,0 0.3962768,0.039507 0.4999998,0.095703 l 0.0059,0.00195 0.0059,0.00391 c 0.125173,0.060079 0.204409,0.1320342 0.261719,0.2246094 l 0.0039,0.00586 0.0039,0.00586 c 0.0675,0.096426 0.112212,0.2058943 0.132813,0.3398435 v 0.002 c 0.02344,0.146007 0.03496,0.298571 0.03516,0.458985 -0.02883,-0.0052 -0.05288,-0.01323 -0.08398,-0.01758 -0.09905,-0.02127 -0.202466,-0.03353 -0.310547,-0.04101 -0.106761,-0.01422 -0.210179,-0.02149 -0.3125,-0.02149 -0.3190973,0 -0.6179549,0.02907 -0.8964846,0.0918 -0.2819329,0.06349 -0.5342272,0.168615 -0.75,0.316407 -0.2198589,0.14405 -0.3971298,0.334948 -0.5195313,0.564453 -0.1260017,0.236247 -0.1835937,0.511795 -0.1835937,0.814453 0,0.310362 0.047825,0.587785 0.15625,0.828125 l 0.00391,0.0059 0.00195,0.0039 c 0.1116303,0.223374 0.2633379,0.414565 0.453125,0.566407 l 0.00586,0.0039 0.00391,0.0039 c 0.1945155,0.142137 0.4179706,0.245415 0.6640625,0.310547 h 0.00195 c 0.2485366,0.06396 0.5140664,0.0957 0.796875,0.0957 0.2145021,0 0.4232661,-0.01136 0.6250001,-0.03125 0.202101,-0.0133 0.388711,-0.03162 0.556641,-0.05859 0.161039,-0.02578 0.301479,-0.04909 0.423828,-0.06836 l 0.0078,-0.002 h 0.0059 c 0.126052,-0.02663 0.223463,-0.05096 0.300781,-0.07422 l 0.177734,-0.05273 v -3.339844 c 0,-0.284838 -0.03405,-0.5542329 -0.105468,-0.8046873 -0.0735,-0.2572371 -0.195613,-0.4852354 -0.363282,-0.6757812 -0.1704,-0.2001606 -0.393491,-0.3526269 -0.65625,-0.4550782 h -0.002 C 10.664373,8.3357402 10.39119,8.2799472 10.123049,8.2636719 v 0 z m 0.1933599,3.1601561 c 0.258982,0 0.456569,0.02039 0.578124,0.05078 l 0.0039,0.002 h 0.0059 c 0.07096,0.01476 0.09064,0.02537 0.138672,0.03906 v 1.357422 c -0.08142,0.01203 -0.149313,0.02471 -0.25,0.03516 -0.17134,0.01202 -0.373683,0.01758 -0.611328,0.01758 -0.1819996,0 -0.342829,-0.01398 -0.482422,-0.04101 -9.41e-4,-2.36e-4 -0.00101,-0.0017 -0.00195,-0.002 -0.1281034,-0.0323 -0.2340906,-0.07657 -0.3222657,-0.134765 -0.072658,-0.05179 -0.1287242,-0.118688 -0.1757812,-0.210938 -0.038797,-0.08748 -0.064453,-0.207635 -0.064453,-0.367187 0,-0.177481 0.036617,-0.29304 0.089844,-0.369141 0.067321,-0.09618 0.1490709,-0.165349 0.2558594,-0.21875 l 0.00391,-0.002 0.00391,-0.002 c 0.1133768,-0.06183 0.2352066,-0.101292 0.3730469,-0.117187 h 0.00391 l 0.00586,-0.002 c 0.1560156,-0.02409 0.3041866,-0.03516 0.4453126,-0.03516 z"
     id="path918-6"
     inkscape:connector-curvature="0"
     sodipodi:nodetypes="sccccccscccccccccccscccsccccccccscccccccsccccccscccccccsccccsccccccccc" />
</svg>
